X: 20672
M: C
L: 1/8
K: G
(GA) |\
|: (de) |\
g2(gd) efga | b2ga g4 | e2a2 abag | e2a2 a4 |\
gagd efed | B2GA G2d2 | efge dBAB | G2E2 E4 :|


